src/assets/filled/LocationAdd.svg

<svg width="24" height="24" viewBox="0 0 24 24"  xmlns="http://www.w3.org/2000/svg">
<path d="M20.62 8.7C19.58 4.07 15.54 2 12 2C12 2 12 2 11.99 2C8.45999 2 4.42999 4.07 3.37999 8.69C2.19999 13.85 5.35999 18.22 8.21999 20.98C9.27999 22 10.64 22.51 12 22.51C13.36 22.51 14.72 22 15.77 20.98C18.63 18.22 21.79 13.86 20.62 8.7ZM14.75 11.75H12.75V13.75C12.75 14.16 12.41 14.5 12 14.5C11.59 14.5 11.25 14.16 11.25 13.75V11.75H9.24999C8.83999 11.75 8.49999 11.41 8.49999 11C8.49999 10.59 8.83999 10.25 9.24999 10.25H11.25V8.25C11.25 7.84 11.59 7.5 12 7.5C12.41 7.5 12.75 7.84 12.75 8.25V10.25H14.75C15.16 10.25 15.5 10.59 15.5 11C15.5 11.41 15.16 11.75 14.75 11.75Z" />
</svg>

<?xml version="1.0" encoding="UTF-8"?>
<svg width="24" height="24" viewBox="0 0 24 24" xmlns="http://www.w3.org/2000/svg">
 <path d="m20.62 8.7c-1.04-4.63-5.08-6.7-8.62-6.7h-0.01c-3.53 0-7.56 2.07-8.61 6.69-1.18 5.16 1.98 9.53 4.84 12.29 1.06 1.02 2.42 1.53 3.78 1.53s2.72-0.51 3.77-1.53c2.86-2.76 6.02-7.12 4.85-12.28zm-5.87 3.05h-2v2c0 0.41-0.34 0.75-0.75 0.75s-0.75-0.34-0.75-0.75v-2h-2c-0.41 0-0.75-0.34-0.75-0.75s0.34-0.75 0.75-0.75h2v-2c0-0.41 0.34-0.75 0.75-0.75s0.75 0.34 0.75 0.75v2h2c0.41 0 0.75 0.34 0.75 0.75s-0.34 0.75-0.75 0.75z"/>
</svg>
